X: 16239
T: Greet's Farewell
R: reel
M: 4/4
K: Gmajor
G2GD EDDC|B,D3 EDDC|B,A,G,A, B,CDG|FGAB GcBA|
G2GD EDDC|B,D3 EDDC|B,A,G,A, B,CDG|FGAF GEDB,|
G,B,DG E2DC|B,D3 EDDC|B,A,G,A, B,CDG|FGAB GcBA|
G2GD EDDC|B,D3 EDDC|B,A,G,A, B,CDG|FGAG GBdg||
fddc ABcB|BAGE DGBG|E2EG DEGB|BAGB ABdg|
fddc ABcB|BAGE DGBG|E2EG DEGB|1 BAFA GBdg:|2 BAFA G4||

